X: 23469
T: Leveneep Head
R: reel
M: 4/4
K: Amajor
A,2 CE D2 FA|E2 Ad cBAG|FAdf e2 e2|dcBA GEDB,|
A,2 CE D2 FA|E2 Ad cBAG|FAdf eEGB|1 c2A2A2z2:|2 c2 A2 A2 cd||
eAce a2 ga|fedf eAcA|FAdf eAce|dcBA B2 cd|
eAce a2 ga|fedf eAce|FAdf eEGB|c2 A2 A2 cd|
eAce a2 ga|fedf eAcA|FAdf eAce|dcBA GEDB,|
A,2 CE D2 FA|E2 Ad cBAG|FAdf eEGB|c2 A2 A2 z2||

